X:176
T:Da Auld Peat Rod
C:Joe Buchanan's Scottish Tome - Page 268.2
I:268 2
Z:Carl Allison
C:Tom Anderson
R:Jig
L:1/8
M:6/8
K:G
A |: "Am"EAA ABc | "Am"BAG A2 A | "G"DGG GFG | "G"Bge dBG |
"Am"EAA ABc | "Am"BAG A2 =f | "E7"edc dcB | "Am"A3 A2 e :|
"Am"a^ga ecA | "G"gfg dBG | "Am"a^ga ecA | "G"def gfg |
[1 "Am"a^ga ecA | "G"gfg dBG | "Am"edc "E7"dcB | "Am"A2 e :|
[2 "Am"EAA ABc | "Am"BAG A2 =f | "E7"edc dcB | "Am"A3 A2 |]
W:Errata: Added colon after first bar.

